svgs/regular/building-columns.svg

<svg xmlns="http://www.w3.org/2000/svg" viewBox="0 0 512 512"><!--! Font Awesome Pro 6.6.0 by @fontawesome - https://fontawesome.com License - https://fontawesome.com/license (Commercial License) Copyright 2024 Fonticons, Inc. --><path d="M267.6 3c-7.2-4-16-4-23.2 0L17.6 128.1C6.7 134.1 0 145.5 0 157.9C0 176.8 15.2 192 34.1 192l443.9 0c18.8 0 34.1-15.2 34.1-34.1c0-12.4-6.7-23.8-17.6-29.8L267.6 3zM228.3 144L88.2 144 256 51.4 423.8 144l-140.1 0c2.7-4.7 4.3-10.2 4.3-16c0-17.7-14.3-32-32-32s-32 14.3-32 32c0 5.8 1.6 11.3 4.3 16zM64 224l0 160c-13.3 0-24 10.7-24 24s10.7 24 24 24l392 0c13.3 0 24-10.7 24-24s-10.7-24-24-24l-8 0 0-160-48 0 0 160-64 0 0-160-48 0 0 160-64 0 0-160-48 0 0 160-64 0 0-160-48 0zM32 464c-13.3 0-24 10.7-24 24s10.7 24 24 24l456 0c13.3 0 24-10.7 24-24s-10.7-24-24-24L32 464z"/></svg>

<svg xmlns="http://www.w3.org/2000/svg" viewBox="0 0 512 512"><!--! Font Awesome Pro 6.4.2 by @fontawesome - https://fontawesome.com License - https://fontawesome.com/license (Commercial License) Copyright 2023 Fonticons, Inc. --><path d="M267.6 3c-7.2-4-16-4-23.2 0L17.6 128.1C6.7 134.1 0 145.5 0 157.9C0 176.8 15.2 192 34.1 192H477.9c18.8 0 34.1-15.2 34.1-34.1c0-12.4-6.7-23.8-17.6-29.8L267.6 3zM228.3 144H88.2L256 51.4 423.8 144H283.7c2.7-4.7 4.3-10.2 4.3-16c0-17.7-14.3-32-32-32s-32 14.3-32 32c0 5.8 1.6 11.3 4.3 16zM64 224V384c-13.3 0-24 10.7-24 24s10.7 24 24 24H456c13.3 0 24-10.7 24-24s-10.7-24-24-24h-8V224H400V384H336V224H288V384H224V224H176V384H112V224H64zM32 464c-13.3 0-24 10.7-24 24s10.7 24 24 24H488c13.3 0 24-10.7 24-24s-10.7-24-24-24H32z"/></svg>
